X:109
T:Old John's
Z: id:dc-jig-90
M:6/8
L:1/8
K:A Dorian
B|cAA cAA|GEE GAB|cAA cAA|Add ded|!
cAA cAA|GEE GAB|cde ged|cAA A2:|!
d|efg eaa|ged cAA|efg eaa|ba^g a3|!
efg eaa|ged cAB|cde ged|cAA A2:|!

